usr/share/icons/biglinux-icons-material-dark/symbolic/status/battery-040-charging-symbolic.svg

<svg width="16" height="16" version="1.1" xmlns="http://www.w3.org/2000/svg">
 <path d="m6 5.5c0 1.3994-0.81858 2.5934-2 3.1543v2.3457h2v-5.5z" fill="#dedede" stroke-linecap="round" stroke-linejoin="round" stroke-width="1.5" style="paint-order:stroke fill markers"/>
 <path class="ColorScheme-Text" d="m6 3v1h6c1.108 0 1.9254 0.89452 2 2v4c0 1.108-0.892 2-2 2h-8v1h8c1.662 0 3-1.338 3-3v-1h1v-2h-1v-1c0-1.662-1.338-3-3-3z" color="#333333" fill="#dedede"/>
 <g transform="translate(-.069557)" fill="#dedede" stroke-linecap="round" stroke-linejoin="round" stroke-width="4" style="paint-order:stroke fill markers" aria-label="">
  <path d="m5.0696 5.5c0 0.29167-0.052083 0.57292-0.15625 0.84375-0.09375 0.27083-0.22917 0.51562-0.40625 0.73438s-0.39062 0.40625-0.64062 0.5625c-0.23958 0.14583-0.50521 0.25-0.79688 0.3125v5.0469h-1v-5.0469c-0.29167-0.0625-0.5625-0.16667-0.8125-0.3125-0.23958-0.15625-0.44792-0.34375-0.625-0.5625s-0.31771-0.46354-0.42188-0.73438c-0.09375-0.27083-0.14062-0.55208-0.14062-0.84375v-2.5h1v-2h1v2h1v-2h1v2h1zm-4 0c0 0.41667 0.14583 0.77083 0.4375 1.0625s0.64583 0.4375 1.0625 0.4375 0.77083-0.14583 1.0625-0.4375 0.4375-0.64583 0.4375-1.0625v-1.5h-3z" color="#000000" fill="#dedede" stroke-linecap="round" stroke-width="2" style="-inkscape-stroke:none"/>
 </g>
</svg>

<svg xmlns="http://www.w3.org/2000/svg" width="16" height="16">
<path fill="#363636" d="M6 5.5c0 1.4-.819 2.593-2 3.154V11h2z" style="paint-order:stroke fill markers"/>
<path fill="#363636" d="M6 3v1h6c1.108 0 1.925.895 2 2v4c0 1.108-.892 2-2 2H4v1h8c1.662 0 3-1.338 3-3V9h1V7h-1V6c0-1.662-1.338-3-3-3z" class="ColorScheme-Contrast" color="#333"/>
<g style="paint-order:stroke fill markers">
<path fill="#363636" d="M5.07 5.5q0 .438-.157.844-.14.405-.406.734c-.266.33-.39.406-.64.563q-.36.218-.797.312V13h-1V7.953a2.7 2.7 0 0 1-.813-.312A2.7 2.7 0 0 1 .21 6.344 2.6 2.6 0 0 1 .07 5.5V3h1V1h1v2h1V1h1v2h1zm-4 0q0 .624.437 1.063c.437.439.646.437 1.063.437s.77-.146 1.062-.437.438-.646.438-1.063V4h-3z" aria-label="" color="#000" style="-inkscape-stroke:none" transform="translate(-.07)"/>
</g>
</svg>
